src/assets/img/icons/svg/btn-message.svg

<svg
    width="18"
    height="18"
    viewBox="0 0 18 18"
    fill="none"
    xmlns="http://www.w3.org/2000/svg"
>
    <path
    d="M14.5 1.5H2.5C1.67125 1.5 1.0075 2.17125 1.0075 3L1 16.5L4 13.5H14.5C15.3287 13.5 16 12.8288 16 12V3C16 2.17125 15.3287 1.5 14.5 1.5ZM13 10.5H4V9H13V10.5ZM13 8.25H4V6.75H13V8.25ZM13 6H4V4.5H13V6Z"
    fill="url(#paint0_linear_515_1843)"
    />
    <defs>
    <linearGradient
        id="paint0_linear_515_1843"
        x1="1"
        y1="16.5"
        x2="18.2884"
        y2="13.085"
        gradientUnits="userSpaceOnUse"
    >
        <stop stop-color="#F00B1D" />
        <stop offset="1" stop-color="#FF5833" />
    </linearGradient>
    </defs>
</svg>

<svg width="18" height="18" fill="none" xmlns="http://www.w3.org/2000/svg"><path d="M14.5 1.5h-12c-.829 0-1.492.671-1.492 1.5L1 16.5l3-3h10.5A1.5 1.5 0 0 0 16 12V3a1.5 1.5 0 0 0-1.5-1.5Zm-1.5 9H4V9h9v1.5Zm0-2.25H4v-1.5h9v1.5ZM13 6H4V4.5h9V6Z" fill="url(#a)"/><defs><linearGradient id="a" x1="1" y1="16.5" x2="18.288" y2="13.085" gradientUnits="userSpaceOnUse"><stop stop-color="#F00B1D"/><stop offset="1" stop-color="#FF5833"/></linearGradient></defs></svg>
